assets/info.svg

<svg version="1.1" id="Capa_1" xmlns="http://www.w3.org/2000/svg" xmlns:xlink="http://www.w3.org/1999/xlink" x="0px" y="0px" viewBox="0 0 330 330" xml:space="preserve">
	<path d="M165,0C74.019,0,0,74.02,0,165.001C0,255.982,74.019,330,165,330s165-74.018,165-164.999C330,74.02,255.981,0,165,0z
	 M165,300c-74.44,0-135-60.56-135-134.999C30,90.562,90.56,30,165,30s135,60.562,135,135.001C300,239.44,239.439,300,165,300z"/>
	<path d="M164.998,70c-11.026,0-19.996,8.976-19.996,20.009c0,11.023,8.97,19.991,19.996,19.991
		c11.026,0,19.996-8.968,19.996-19.991C184.994,78.976,176.024,70,164.998,70z"/>
	<path d="M165,140c-8.284,0-15,6.716-15,15v90c0,8.284,6.716,15,15,15c8.284,0,15-6.716,15-15v-90C180,146.716,173.284,140,165,140z"/>
</svg>

<svg width="330" height="330" viewBox="0 0 330 330" fill="none" xmlns="http://www.w3.org/2000/svg">
<g clip-path="url(#clip0_1_6)">
<path d="M165 0C74.019 0 0 74.02 0 165.001C0 255.982 74.019 330 165 330C255.981 330 330 255.982 330 165.001C330 74.02 255.981 0 165 0ZM165 300C90.56 300 30 239.44 30 165.001C30 90.562 90.56 30 165 30C239.44 30 300 90.562 300 165.001C300 239.44 239.439 300 165 300Z" fill="black" fill-opacity="0.6"/>
<path d="M164.998 70C153.972 70 145.002 78.976 145.002 90.009C145.002 101.032 153.972 110 164.998 110C176.024 110 184.994 101.032 184.994 90.009C184.994 78.976 176.024 70 164.998 70Z" fill="black" fill-opacity="0.6"/>
<path d="M165 140C156.716 140 150 146.716 150 155V245C150 253.284 156.716 260 165 260C173.284 260 180 253.284 180 245V155C180 146.716 173.284 140 165 140Z" fill="black" fill-opacity="0.6"/>
</g>
<defs>
<clipPath id="clip0_1_6">
<rect width="330" height="330" fill="white"/>
</clipPath>
</defs>
</svg>
